!!!!SEGMENT: pl-cz--i-155--006-004_anonim--partia-es-allegro-presto.krn
!!!cenid: 18xx:2515
!!!COM: Anonim
!!!COM-rismID: pe30004985
!!!CDT:
!!!CNT:
!!!OPR: Partia Es
!!!OTL: Allegro presto
!!!OMV: 004
!!!PDT:
!!!AGN: Secular; Partita
!!!SMS-siglum: PL-CZ
!!!SMS-shelfmark: I-155
!!!SMS-shelfwork: 006-004 M
!!!SMS-variant:
!!!SMS-altvar:
!!!NIFC-rismSourceID: 1001012514
!!!NIFC-islandoraID: pl-cz:814
!!!URL-pdf-islandora: https://repozytorium.nifc.pl/islandora/object/pl-cz%3A814/datastream/PDF/view
!!!URL-scan: https://polish.musicsources.pl/pl/lokalizacje/galeria/rekopisy/557 @EN{Scan on Polish Music Sources Website} @PL{Skany w portalu Dziedzictwo Muzyki Polskiej w otwartym dostępie}
!!!ONB-nifc: UWAGA: Parthia 6 (006), części: 1. bez tempa, 2. Adagio, 3. Menuetto, 4. Allegro presto. Uwaga: 5 partii
!!!AIN: 2 clars 2 cor 1 fagot
!!!key:
**kern	**kern	**kern	**kern	**dynam	**kern	**dynam
*part5	*part4	*part3	*part2	*part2	*part1	*part1
*staff5	*staff4	*staff3	*staff2	*	*staff1	*
*Icor	*Icor	*Ifagot	*Iclars	*	*Iclars	*
*I"Corno Secondo	*I"Corno Primo.	*I"Fagotto	*I"Clarinetto Secondo	*	*I"Clarinetto Primo	*
*I'cor 2 in E|b	*I'cor 1 in E|b	*I'fag	*I'cl 2	*	*I'cl 1	*
*clefG2	*clefG2	*clefF4	*clefG2	*	*clefG2	*
*ITrd5c9	*ITrd5c9	*	*ITrd1c2	*	*ITrd1c2	*
*k[b-e-a-]	*k[b-e-a-]	*k[b-e-a-]	*k[b-e-a-]	*	*k[b-e-a-]	*
*A-:	*A-:	*A-:	*A-:	*	*A-:	*
*M3/8	*M3/8	*M3/8	*M3/8	*	*M3/8	*
*>[A,A,B,B]	*	*	*	*	*	*
=1	=1	=1	=1	=1	=1	=1
*>A	*	*	*	*	*	*
*	*tremolo	*	*	*	*	*
!	!LO:TX:a:t=Allo	!LO:TX:a:t=Allo Presto	!LO:TX:a:t=Presto	!	!LO:TX:a:t=Presto	!
!	!	!	!LO:N:vis=1	!	!	!LO:DY:rj
8E-/L	8e-\L	4.E-\	2.r	.	8e-/L	p
8E-/	8e-\	.	.	.	8B-/	.
8E-/J	8e-\J	.	.	.	8e-/J	.
*	*Xtremolo	*	*	*	*	*
=2	=2	=2	=2	=2	=2	=2
4E-/	4e-\	16E-\LL	.	.	4e-/	.
.	.	16A-\	.	.	.	.
.	.	16G\	.	.	.	.
.	.	16F\	.	.	.	.
8r	8r	16E-\	.	.	16e-/LL	.
.	.	16D\JJ	.	.	16f/JJ	.
=3	=3	=3	=3	=3	=3	=3
*	*tremolo	*	*	*	*	*
!	!	!	!	!	!	!LO:DY:rj
8E-/L	8e-\L	4.E-\	8e-/L	.	8g/L	f
8E-/	8e-\	.	8B-/	.	8e-/	.
8E-/J	8e-\J	.	8e-/J	.	8g/J	.
*	*Xtremolo	*	*	*	*	*
=4	=4	=4	=4	=4	=4	=4
!	!	!	!LO:N:vis=4.	!	!	!
4E-/	4e-\	16E-\LL	4e-/	.	4g/	.
.	.	16c\	.	.	.	.
.	.	16B-\	.	.	.	.
.	.	16A-\	.	.	.	.
8r	8r	16G\	16e-/LL	.	8b-\	.
.	.	16F\JJ	16f/JJ	.	.	.
=5	=5	=5	=5	=5	=5	=5
!	!	!	!	!	!	!LO:DY:rj:t=ffo
4E-/	4e-\	4E-\	16g\LL	.	16b-\LL	ff
.	.	.	16ee-\	.	16ee-\	.
.	.	.	16b-\	.	16dd\	.
.	.	.	16a-\	.	16cc\	.
8r	8r	8r	16g\	.	16b-\	.
.	.	.	16f\JJ	.	16a-\JJ	.
=6	=6	=6	=6	=6	=6	=6
4E-/	4e-\	4E-\	16e-/LL	.	16g\LL	.
.	.	.	16a-/	.	16cc\	.
.	.	.	16g/	.	16b-\	.
.	.	.	16f/	.	16a-\	.
8r	8r	8r	16e-/	.	16g\	.
.	.	.	16d/JJ	.	16f\JJ	.
=7	=7	=7	=7	=7	=7	=7
8E-/L	8e-\L	8E-\L	8e-/L	.	8e-/L	.
8G/	8g\	8G\	8g/	.	8g/	.
8E-/J	8e-\J	8E-\J	8e-/J	.	8e-/J	.
!	!	!	!	!	!LO:LB:g=original	!
=8	=8	=8	=8	=8	=8	=8
4BB-/	4B-/	8BB-/L	4B-/	.	4B-/	.
.	.	8C/	.	.	.	.
8r	8r	8D/J	8r	.	8r	.
=9	=9	=9	=9	=9	=9	=9
*tremolo	*tremolo	*	*	*	*	*
!	!	!	!LO:N:vis=1	!	!	!LO:DY:rj
8E-/L	8e-\L	4.E-\	2.r	.	8e-/L	p
8E-/	8e-\	.	.	.	8B-/	.
8E-/J	8e-\J	.	.	.	8e-/J	.
*Xtremolo	*Xtremolo	*	*	*	*	*
!LO:LB:g=original	!	!LO:LB:g=original	!	!	!	!
=10	=10	=10	=10	=10	=10	=10
4E-/	4e-\	16E-\LL	.	.	4e-/	.
.	.	16A-\	.	.	.	.
.	.	16G\	.	.	.	.
.	.	16F\	.	.	.	.
8r	8r	16E-\	.	.	16e-/LL	.
.	.	16D\JJ	.	.	16f/JJ	.
!	!LO:LB:g=original	!	!LO:LB:g=original	!	!	!
=11	=11	=11	=11	=11	=11	=11
*tremolo	*tremolo	*	*	*	*	*
!	!	!	!	!	!	!LO:HP:t=cre
8E-/L	8e-\L	4.E-\	8e-/L	.	8g/L	<
8E-/	8e-\	.	8B-/	.	8e-/	.
8E-/J	8e-\J	.	8e-/J	.	8g/J	.
*Xtremolo	*Xtremolo	*	*	*	*	*
=12	=12	=12	=12	=12	=12	=12
4E-/	4e-\	16E-\LL	4e-/	.	4g/	.
.	.	16c\	.	.	.	.
.	.	16B-\	.	.	.	.
.	.	16A-\	.	.	.	.
8r	8r	16G\	16e-/LL	.	8b-\	.
.	.	16F\JJ	16f/JJ	.	.	.
=13	=13	=13	=13	=13	=13	=13
4E-/	4e-\	4E-\	16g\LL	.	16b-\LL	.
.	.	.	16cc\	.	16ee-\	.
.	.	.	16b-\	.	16dd\	.
.	.	.	16a-\	.	16cc\	.
8r	8r	8r	16g\	.	16b-\	.
.	.	.	16f\JJ	.	16a-\JJ	.
=14	=14	=14	=14	=14	=14	=14
4E-/	4e-\	4E-\	16e-/LL	.	16g\LL	.
.	.	.	16a-/	.	16cc\	.
.	.	.	16g/	.	16b-\	.
.	.	.	16f/	.	16a-\	.
!	!	!LO:N:vis=4	!	!	!	!
8r	8r	8r	16e-/	.	16g\	.
.	.	.	16d/JJ	.	16f\JJ	.
=15	=15	=15	=15	=15	=15	=15
4.E-/	4.e-\	8E-\L	8e-/L	.	8e-/L	.
.	.	8D\	8d/	.	8d/	.
.	.	8E-\J	8e-/J	.	8e-/J	.
=16	=16	=16	=16	=16	=16	=16
4BB-/	4f\	8B-\L	4B-/	.	4B-/	.
.	.	8F\	.	.	.	.
8r	8r	8D\J	8r	.	8r	.
!	!	!	!	!	!LO:LB:g=original	!
=17	=17	=17	=17	=17	=17	=17
4f\	4a-\	8r	4.r	.	4.r	.
!	!	!LO:TX:t=P:problem=mixed beam	!	!	!	!
.	.	8D\L	.	.	.	.
8B-/	8f\	8BB-/J	.	.	.	.
=18	=18	=18	=18	=18	=18	=18
4e-\	4g\	8r	8r	.	8r	.
.	.	8E-\L	8r	.	8r	.
8G/	8e-\	8G\J	8g/	.	8ee-\	.
!	!	!LO:LB:g=original	!	!	!	!
=19	=19	=19	=19	=19	=19	=19
4.BB-/	4.f\	4B-\	8f/L	.	8dd\L	.
.	.	.	8g/	.	8ee-\	.
.	.	8BB-/	8a-/J	.	8ff\J	.
=20	=20	=20	=20	=20	=20	=20
!	!	!LO:TX:t=P:problem=mixed beam	!	!	!	!
4E-/	4e-\	8E-\L	16g/LL	.	16ee-\LL	.
.	.	.	16f/	.	16dd\	.
.	.	8EE-/	16g/	.	16ee-\	.
.	.	.	16a-/J	.	16ff\J	.
8r	8r	8E-\J	8g/J	.	8ee-\J	.
!	!	!	!LO:LB:g=original	!	!	!
=21	=21	=21	=21	=21	=21	=21
4f\	4a-\	8r	4.r	.	4.r	.
.	.	8BB-/L	.	.	.	.
8B-/	8f\	8D/J	.	.	.	.
!LO:LB:g=original	!	!	!	!	!	!
=22	=22	=22	=22	=22	=22	=22
4e-\	4g\	8r	8r	.	8r	.
.	.	8E-\L	8r	.	8r	.
8G/	8e-\	8G\J	8g/	.	8ee-\	.
!	!LO:LB:g=original	!	!	!	!	!
=23	=23	=23	=23	=23	=23	=23
8r	8r	8r	8a-/L	.	8ff\L	.
!	!	!LO:TX:t=P:problem=mixed beam	!	!	!	!
8r	8r	8B-\L	8g/	.	8ee-\	.
8B-/	8f\	8BB-/J	8f/J	.	8dd\J	.
=24	=24	=24	=24	=24	=24	=24
4G/	4e-\	8E-\L	4g/	.	4ee-\	.
.	.	16F\L	.	.	.	.
.	.	16E-\	.	.	.	.
8r	8r	16D\	8r	.	8r	.
.	.	16C\JJ	.	.	.	.
=25	=25	=25	=25	=25	=25	=25
4.BB-/	4.B-/	4.BB-/	16dd\LL	.	16ff\LL	.
.	.	.	16ee-\	.	16gg\	.
.	.	.	16dd\	.	16ff\	.
.	.	.	16cc\	.	16ee-\	.
.	.	.	16b-\	.	16dd\	.
.	.	.	16f\JJ	.	16cc\JJ	.
=26	=26	=26	=26	=26	=26	=26
4BB-/	4B-/	4BB-/	8d/L	.	8b-\L	.
.	.	.	8e-/	.	8cc\	.
8r	8r	8B-\	8f/J	.	8dd\J	.
!	!	!	!	!	!LO:LB:g=original	!
=27	=27	=27	=27	=27	=27	=27
4.f\	4.f\	4c\	4.f/	.	4ee-\	.
.	.	8An\	.	.	8cc\	.
!	!	!LO:LB:g=original	!	!	!	!
=28	=28	=28	=28	=28	=28	=28
8B-/	8f\	8B-\L	4.f/	.	4dd\	.
8r	8r	8F\	.	.	.	.
8r	8r	8D\J	.	.	8b-\	.
=29	=29	=29	=29	=29	=29	=29
4.BB-/	4.B-/	4.BB-/	16dd\LL	.	16ff\LL	.
.	.	.	16ee-\	.	16gg\	.
.	.	.	16dd\	.	16ff\	.
.	.	.	16cc\	.	16ee-\	.
.	.	.	16b-\	.	16dd\	.
.	.	.	16f\JJ	.	16cc\JJ	.
=30	=30	=30	=30	=30	=30	=30
4BB-/	4B-/	4BB-/	8d/L	.	8b-\L	.
.	.	.	8e-/	.	8cc\	.
8r	8r	8B-\	8f/J	.	8dd\J	.
!	!	!	!LO:LB:g=original	!	!	!
=31	=31	=31	=31	=31	=31	=31
8r	8r	4e-\	4c/	.	4cc\	.
8r	8r	.	.	.	.	.
8f\	8f\	8c\	8e-/	.	8a\	.
=32	=32	=32	=32	=32	=32	=32
4B-/	4f\	8B-\L	4d/	.	4b-\	.
.	.	8F\	.	.	.	.
8r	8r	8D\J	8r	.	8r	.
=33	=33	=33	=33	=33	=33	=33
!	!	!LO:TX:t=P:problem=mixed beam	!	!	!	!
4.BB-/	4.B-/	8BB-/L	8.dd\L	.	8.ff\L	.
.	.	16B-\L	.	.	.	.
.	.	16An\J	16cc\K	.	16ee-\K	.
.	.	8B-\J	8b-\J	.	8dd\J	.
!LO:LB:g=original	!	!	!	!	!	!
=34	=34	=34	=34	=34	=34	=34
!	!	!LO:TX:t=P:problem=mixed beam	!	!	!	!
4BB-/	4B-/	8BB-/L	8.dd\L	.	8.ff\L	.
.	.	16B-\L	.	.	.	.
.	.	16A-\J	16cc\K	.	16ee-\K	.
8r	8r	8B-\J	8b-\J	.	8dd\J	.
=35	=35	=35	=35	=35	=35	=35
!	!LO:TX:b:t=Repet	!LO:TX:t=P:problem=mixed beam	!	!	!	!
8BB-/	8B-/	8BB-/L	8gg\L	.	8bb-\L	.
8r	8r	8B-\	8ff\	.	8aa\	.
8r	8r	8B-\J	8ee-\J	.	8gg\J	.
!	!	!	!	!	!LO:LB:g=original	!
=36	=36	=36	=36	=36	=36	=36
!	!LO:TX:t=P:problem=takt zapisany repetycją	!	!	!	!	!
8BB-/	8B-/yy	4BB-/	16dd\LL	.	16ff\LL	.
.	.	.	16ee-\	.	16gg\	.
8r	8ryy	.	16dd\	.	16ff\	.
.	.	.	16cc\J	.	16ee-\J	.
8r	8ryy	8r	8b-\J	.	8dd\J	.
!	!LO:LB:g=original	!LO:LB:g=original	!	!	!	!
=37	=37	=37	=37	=37	=37	=37
!	!	!LO:TX:t=P:problem=mixed beam	!	!	!	!
4.BB-/	4.B-/	8BB-/L	8.dd\L	.	8.ff\L	.
.	.	16B-\L	.	.	.	.
.	.	16An\J	16cc\K	.	16ee-\K	.
.	.	8B-\J	8b-\J	.	8dd\J	.
=38	=38	=38	=38	=38	=38	=38
!	!	!LO:TX:t=P:problem=mixed beam	!	!	!	!
4BB-/	4B-/	8BB-\L	8.dd\L	.	8.ff\L	.
.	.	16B-\L	.	.	.	.
.	.	16A-\J	16cc\K	.	16ee-\K	.
8r	8r	8B-\J	8b-\J	.	8dd\J	.
=39	=39	=39	=39	=39	=39	=39
!	!	!LO:TX:t=P:problem=mixed beam	!	!	!	!
8r	8r	8E-\L	8e-/L	.	8cc\L	.
8r	8r	8F\	8d/	.	8b-\	.
8f\	8f\	8FF/J	8c/J	.	8a\J	.
=40	=40	=40	=40	=40	=40	=40
4B-/	4f\	8B-\L	4d/	.	4b-\	.
.	.	8F\	.	.	.	.
8r	8r	8D\J	8r	.	8r	.
!	!	!	!LO:LB:g=original	!	!	!
=41	=41	=41	=41	=41	=41	=41
!LO:N:vis=1	!LO:N:vis=1	!	!	!	!	!LO:DY:a
2.r	2.r	8BB-/L	4.f/	.	4.a-\	p
.	.	8C/	.	.	.	.
.	.	8D/J	.	.	.	.
=42	=42	=42	=42	=42	=42	=42
.	.	8E-\L	4e-/	.	4g/	.
.	.	8G\	.	.	.	.
.	.	8F\J	8r	.	8r	.
=43	=43	=43	=43	=43	=43	=43
8r	8r	4E-\	4g/	.	8ee-\L	f
8r	8r	.	.	.	8cc\	.
8f\	8f\	8F\	8e-/	.	8a\J	.
=44	=44	=44	=44	=44	=44	=44
4B-/	4B-/	8B-\L	4d/	.	4b-\	.
.	.	8F\	.	.	.	.
8r	8r	8D\J	8r	.	8r	.
=45	=45	=45	=45	=45	=45	=45
!LO:N:vis=1	!LO:N:vis=1	!	!	!	!	!LO:DY:rj
2.r	2.r	8BB-/L	4.f/	.	4.a-/	p
.	.	8C/	.	.	.	.
.	.	8D/J	.	.	.	.
!	!	!	!	!	!LO:LB:g=original	!
=46	=46	=46	=46	=46	=46	=46
.	.	8E-\L	4B-/	.	4g/	.
.	.	8G\	.	.	.	.
.	.	8E-\J	8r	.	8r	.
!	!	!LO:LB:g=original	!	!	!	!
=47	=47	=47	=47	=47	=47	=47
!	!	!	!	!	!	!LO:DY:rj
8r	8r	4E-\	4g/	.	8ee-\L	f
8r	8r	.	.	.	8cc\	.
8f\	8f\	8F\	8e-/	.	8a\J	.
!LO:LB:g=original	!	!	!	!	!	!
=48	=48	=48	=48	=48	=48	=48
4.B-/	4.f\	8BB-/L	4d/	.	4b-\	.
.	.	8D/	.	.	.	.
.	.	8F/J	8B-/	.	8dd\	.
=49	=49	=49	=49	=49	=49	=49
*tremolo	*	*	*	*	*	*
!	!	!	!LO:TX:t=P:problem=mixed beam	!	!	!
8B-/L	8f\L	8B-\L	8d/L	.	8b-\L	.
8B-/	8f\	8F\	8b-/	.	8dd\	.
8B-/J	8f\J	8D\J	8b-/J	.	8dd\J	.
*Xtremolo	*	*	*	*	*	*
=50	=50	=50	=50	=50	=50	=50
!	!	!LO:TX:t=P:problem=mixed beam	!	!	!	!
4B-/	4f\	8BB-/L	4b-\	.	4dd\	.
.	.	8B-\	.	.	.	.
!LO:TX:b:t=50	!LO:TX:b:t=50	!LO:TX:b:t=50	!LO:TX:b:t=50	!	!LO:TX:b:t=50	!
8r	8r	8BB-/J	8r	.	8r	.
!	!LO:LB:g=original	!	!LO:PB:g=original	!	!	!
=51:|!|:	=51:|!|:	=51:|!|:	=51:|!|:	=51:|!|:	=51:|!|:	=51:|!|:
*>B	*	*	*	*	*	*
*tremolo	*tremolo	*	*	*	*	*
!	!	!	!LO:N:vis=1	!	!	!
8B-/L	8b-\L	4.BB-/	2.r	.	8b-\L	.
8B-/	8b-\	.	.	.	8f\	.
8B-/J	8b-\J	.	.	.	8b-\J	.
*Xtremolo	*Xtremolo	*	*	*	*	*
=52	=52	=52	=52	=52	=52	=52
4B-/	4b-\	16BB-/LL	.	.	4b-\	.
.	.	16E-/	.	.	.	.
.	.	16D/	.	.	.	.
.	.	16C/	.	.	.	.
8r	8r	16BB-/	.	.	16b-\LL	.
.	.	16AAn/JJ	.	.	16cc\JJ	.
=53	=53	=53	=53	=53	=53	=53
*tremolo	*tremolo	*	*	*	*	*
8B-/L	8b-\L	4.BB-/	8b-\L	.	8dd\L	.
8B-/	8b-\	.	8f\	.	8b-\	.
8B-/J	8b-\J	.	8b-\J	.	8dd\J	.
*Xtremolo	*Xtremolo	*	*	*	*	*
!	!	!LO:LB:g=original	!	!	!	!
=54	=54	=54	=54	=54	=54	=54
4B-/	4b-\	16BB-\LL	4b-\	.	4dd\	.
.	.	16G\	.	.	.	.
.	.	16F\	.	.	.	.
.	.	16E-\	.	.	.	.
8r	8r	16D\	16b-\LL	.	8ff\	.
.	.	16C\JJ	16cc\JJ	.	.	.
!	!	!	!	!	!LO:LB:g=original	!
=55	=55	=55	=55	=55	=55	=55
4B-/	4b-\	4BB-/	16dd\LL	.	16ff\LL	.
.	.	.	16gg\	.	16bb-\	.
.	.	.	16ff\	.	16aa\	.
.	.	.	16ee-\	.	16gg\	.
8r	8r	8r	16dd\	.	16ff\	.
.	.	.	16cc\JJ	.	16ee-\JJ	.
=56	=56	=56	=56	=56	=56	=56
4B-/	4b-\	4BB-/	16b-\LL	.	16dd\LL	.
.	.	.	16ee-\	.	16gg\	.
.	.	.	16dd\	.	16ff\	.
.	.	.	16cc\	.	16ee-\	.
8r	8r	8r	16b-\	.	16dd\	.
!	!	!	!LO:SIC:v:s=16bn	!	!	!
.	.	.	16a-\JJ	.	16cc\JJ	.
=57	=57	=57	=57	=57	=57	=57
*tremolo	*tremolo	*	*	*	*	*
8B-/L	8f\L	8BB-/L	8B-/L	.	8b-\L	.
8B-/	8f\	8D/	8d/	.	8dd\	.
8B-/J	8f\J	8BB-/J	8B-/J	.	8b-\J	.
*Xtremolo	*Xtremolo	*	*	*	*	*
=58	=58	=58	=58	=58	=58	=58
4f\	4f\	8FF/L	4f/	.	4f/	.
.	.	8GG/	.	.	.	.
!	!	!LO:SIC:v:s=8AAn	!	!	!	!
8r	8r	8AA-/J	8r	.	8r	.
=59	=59	=59	=59	=59	=59	=59
*tremolo	*tremolo	*	*	*	*	*
!	!	!	!LO:N:vis=1	!	!	!
8B-/L	8b-\L	4.BB-/	2.r	.	8b-\L	.
8B-/	8b-\	.	.	.	8f\	.
8B-/J	8b-\J	.	.	.	8b-\J	.
*Xtremolo	*Xtremolo	*	*	*	*	*
!LO:LB:g=original	!	!	!	!	!	!
=60	=60	=60	=60	=60	=60	=60
4B-/	4b-\	16BB-/LL	.	.	4b-\	.
.	.	16E-/	.	.	.	.
.	.	16D/	.	.	.	.
.	.	16C/	.	.	.	.
8r	8r	16BB-/	.	.	16b-\LL	.
!	!	!LO:TX:t=P:problem=♮ below	!	!	!	!
.	.	16AAn/JJ	.	.	16cc\JJ	.
=61	=61	=61	=61	=61	=61	=61
*tremolo	*tremolo	*	*	*	*	*
8B-/L	8b-\L	4.BB-/	8b-\L	.	8dd\L	.
8B-/	8b-\	.	8f\	.	8b-\	.
8B-/J	8b-\J	.	8b-\J	.	8dd\J	.
*Xtremolo	*Xtremolo	*	*	*	*	*
!	!	!	!LO:LB:g=original	!	!	!
=62	=62	=62	=62	=62	=62	=62
!	!	!LO:TX:t=P:problem=mixed beam	!	!	!	!
4B-/	4b-\	16BB-/LL	4b-\	.	4dd\	.
.	.	16G\	.	.	.	.
.	.	16F\	.	.	.	.
.	.	16E-\	.	.	.	.
8r	8r	16D\	16b-\LL	.	8ff\	.
.	.	16C\JJ	16cc\JJ	.	.	.
=63	=63	=63	=63	=63	=63	=63
4B-/	4b-\	4BB-/	16dd\LL	.	16ff\LL	.
.	.	.	16gg\	.	16bb-\	.
.	.	.	16ff\	.	16aa\	.
.	.	.	16ee-\	.	16gg\	.
8r	8r	8r	16dd\	.	16ff\	.
.	.	.	16cc\JJ	.	16ee-\JJ	.
!	!LO:LB:g=original	!LO:LB:g=original	!	!	!LO:LB:g=original	!
=64	=64	=64	=64	=64	=64	=64
4B-/	4b-\	4BB-/	16b-\LL	.	16dd\LL	.
.	.	.	16ee-\	.	16gg\	.
.	.	.	16dd\	.	16ff\	.
.	.	.	16cc\	.	16ee-\	.
8r	8r	8r	16b-\	.	16dd\	.
.	.	.	16f\JJ	.	16cc\JJ	.
=65	=65	=65	=65	=65	=65	=65
*tremolo	*tremolo	*	*	*	*	*
8B-/L	8f\L	8BB-\L	8d/L	.	8b-\L	.
8B-/	8f\	8D\	8f/	.	8ff\	.
8B-/J	8f\J	8F\J	8d/J	.	8dd\J	.
*Xtremolo	*Xtremolo	*	*	*	*	*
=66	=66	=66	=66	=66	=66	=66
4.B-/	4.f\	8B-\L	4B-/	.	4.b-\	.
.	.	8F\	.	.	.	.
.	.	8D\J	8r	.	.	.
=67	=67	=67	=67	=67	=67	=67
4.B-/	4f\	8BB-/L	8d/L	.	8b-\L	.
.	.	8C/	8e-/	.	8a\	.
.	8r	8D/J	8f/J	.	8a-X\J	.
=68	=68	=68	=68	=68	=68	=68
!	!	!	!LO:TX:t=P:problem=mixed beam	!	!LO:TX:t=P:problem=mixed beam	!
8e-\	8g\	4.E-\	8e-/L	.	8g/L	.
8r	8r	.	8ee-\	.	8gg\	.
8r	8r	.	8dd\J	.	8ff\J	.
=69	=69	=69	=69	=69	=69	=69
!	!	!LO:TX:t=P:problem=mixed beam	!	!	!	!
8r	8r	8E-\L	8cc\L	.	8ee-\L	.
8r	8r	8F\	8b-\	.	8dd\	.
8f\	8f\	8FF/J	8a\J	.	8cc\J	.
!	!	!	!LO:LB:g=original	!	!	!
=70	=70	=70	=70	=70	=70	=70
4.B-/	4.f\	8B-\L	4.B-/	.	4.b-\	.
.	.	8F\	.	.	.	.
.	.	8D\J	.	.	.	.
=71	=71	=71	=71	=71	=71	=71
4.B-/	4.f\	8BB-/L	8d/L	.	8b-\L	.
.	.	8C/	8e-/	.	8a\	.
.	.	8D/J	8f/J	.	8a-X\J	.
!LO:LB:g=original	!	!	!	!	!	!
=72	=72	=72	=72	=72	=72	=72
!	!	!	!	!	!LO:TX:t=P:problem=mixed beam	!
8E-/	8e-\	4.E-\	8e-/L	.	8g/L	.
8r	8r	.	8g/	.	8ee-\	.
8r	8r	.	8e-/J	.	8dd\J	.
=73	=73	=73	=73	=73	=73	=73
!	!	!LO:TX:t=P:problem=mixed beam	!	!	!	!
8r	8r	8E-\L	8e-/L	.	8cc\L	.
8r	8r	8F\	8d/	.	8b-\	.
8f\	8f\	8FF/J	8c/J	.	8a\J	.
!	!	!LO:LB:g=original	!	!	!LO:LB:g=original	!
=74	=74	=74	=74	=74	=74	=74
!	!	!LO:TX:t=P:problem=mixed beam	!	!	!	!
4B-/	4f\	8BB-/L	4d/	.	4b-\	.
.	.	16B-\L	.	.	.	.
.	.	16A-X\	.	.	.	.
8r	8r	16G\	8r	.	8r	.
.	.	16F\JJ	.	.	.	.
!	!LO:LB:g=original	!	!	!	!	!
=75	=75	=75	=75	=75	=75	=75
!	!	!	!LO:N:vis=00	!	!LO:N:vis=00	!
4g\	4a-\	4E-\	1.r	.	1.r	.
8e-\	8g\	8r	.	.	.	.
=76	=76	=76	=76	=76	=76	=76
4f\	4a-\	4BB-/	.	.	.	.
8B-/	8f\	8r	.	.	.	.
=77	=77	=77	=77	=77	=77	=77
8B-\L	8f\L	4BB-/	.	.	.	.
8e-\	8g\	.	.	.	.	.
8f\J	8a-\J	8r	.	.	.	.
=78	=78	=78	=78	=78	=78	=78
16g\LL	16b-\LL	4E-\	.	.	.	.
16a-\	16cc\	.	.	.	.	.
16g\	16b-\	.	.	.	.	.
16f\J	16a-\J	.	.	.	.	.
8e-\J	8g\J	8r	.	.	.	.
=79	=79	=79	=79	=79	=79	=79
4E-/	4e-\	4.E-\	4b-\	.	4gg\	.
8r	8r	.	8g\	.	8ee-\	.
=80	=80	=80	=80	=80	=80	=80
4E-/	4e-\	4BB-/	4cc\	.	4aa-\	.
8r	8r	8E-\	8b-\	.	8gg\	.
=81	=81	=81	=81	=81	=81	=81
!	!	!LO:TX:t=P:problem=mixed beam	!	!	!	!
8r	8r	8A-\L	8a-/L	.	8ff\L	.
8r	8r	8B-\	8g/	.	8ee-\	.
8B-/	8f\	8BB-/J	8f/J	.	8dd\J	.
!LO:LB:g=original	!	!	!	!	!	!
=82	=82	=82	=82	=82	=82	=82
4E-/	4e-\	8E-/L	4g/	.	4ee-\	.
.	.	8BB-/	.	.	.	.
8r	8r	8GG/J	8r	.	8r	.
=83	=83	=83	=83	=83	=83	=83
!	!	!LO:TX:t=P:problem=mixed beam	!	!	!LO:N:vis=0	!
!	!	!	!LO:N:vis=1	!	!	!
8.g\L	8.b-\L	8EE-/L	2.r	.	2.r	.
.	.	16E-\L	.	.	.	.
16f\K	16a-\K	16D\J	.	.	.	.
8e-\J	8g\J	8E-\J	.	.	.	.
!	!	!LO:LB:g=original	!	!	!	!
=84	=84	=84	=84	=84	=84	=84
!	!	!LO:TX:t=P:problem=mixed beam	!	!	!	!
8.g\L	8.b-\L	8EE-/L	.	.	.	.
.	.	16E-\L	.	.	.	.
16f\K	16a-\K	16D/J	.	.	.	.
8e-\J	8g\J	8E-\J	.	.	.	.
!	!LO:LB:g=original	!	!	!	!	!
=85	=85	=85	=85	=85	=85	=85
*	*	*tremolo	*	*	*	*
!LO:N:vis=1	!LO:N:vis=1	!	!	!	!	!
2.r	2.r	8E-\L	8cc\L	.	8ee-\L	.
.	.	8E-\	8b-\	.	8dd\	.
.	.	8E-\J	8a-\J	.	8cc\J	.
=86	=86	=86	=86	=86	=86	=86
.	.	8E-\L	8g/L	.	8b-\L	.
.	.	8E-\	8f/	.	8a-\	.
.	.	8E-\J	8e-/J	.	8g\J	.
*	*	*Xtremolo	*	*	*	*
=87	=87	=87	=87	=87	=87	=87
!	!	!LO:TX:t=P:problem=mixed beam	!	!	!	!
8.g\L	8.b-\L	8EE-/L	8.gg\L	.	8.bb-\L	.
.	.	16E-\L	.	.	.	.
16f\K	16a-\K	16D\J	16ff\K	.	16aa-\K	.
8e-\J	8g\J	8E-\J	8ee-\J	.	8gg\J	.
=88	=88	=88	=88	=88	=88	=88
!	!	!LO:TX:t=P:problem=mixed beam	!	!	!	!
8.g\L	8.b-\L	8EE-/L	8.gg\L	.	8.bb-\L	.
.	.	16E-\L	.	.	.	.
16f\K	16a-\K	16D\J	16ff\K	.	16aa-\K	.
8e-\J	8g\J	8E-\J	8ee-\J	.	8gg\J	.
=89	=89	=89	=89	=89	=89	=89
!	!	!LO:TX:t=P:problem=mixed beam	!	!	!	!
8r	8r	8A-\L	8a-/L	.	8ff\L	.
8r	8r	8B-\	8g/	.	8ee-\	.
8B-/	8f\	8BB-/J	8f/J	.	8dd\J	.
!	!	!	!	!	!LO:LB:g=original	!
=90	=90	=90	=90	=90	=90	=90
4E-/	4e-\	8E-\L	4g/	.	4ee-\	.
.	.	8B-\	.	.	.	.
8r	8r	8G\J	8r	.	8r	.
=91	=91	=91	=91	=91	=91	=91
!LO:TX:a:t=2	!	!	!	!	!	!
!LO:N:vis=1	!LO:N:vis=1	!	!	!LO:DY:rj	!	!LO:DY:rj
2.r	2.r	8E-\L	4.b-\	p	4.dd-X\	p
.	.	8F\	.	.	.	.
.	.	8G\J	.	.	.	.
=92	=92	=92	=92	=92	=92	=92
.	.	8A-\L	4e-/	.	4cc\	.
.	.	8c\	.	.	.	.
.	.	8B-\J	8r	.	8r	.
!	!	!LO:LB:g=original	!	!	!	!
=93	=93	=93	=93	=93	=93	=93
!	!	!	!	!LO:DY:rj	!	!
8r	8r	4A-\	4cc\	f	8aa-\L	f
8r	8r	.	.	.	8ff\	.
8B-/	8f\	8B-\	8a-\	.	8dd\J	.
!LO:LB:g=original	!	!	!LO:LB:g=original	!	!	!
=94	=94	=94	=94	=94	=94	=94
4E-/	4e-\	8E-\L	4g/	.	4ee-\	.
.	.	8B-\	.	.	.	.
8r	8r	8G\J	8r	.	8r	.
.	.	.	.	.	.	p
=95	=95	=95	=95	=95	=95	=95
!LO:N:vis=1	!LO:N:vis=1	!	!	!	!	!
2.r	2.r	8E-\L	4.b-\	p	4.dd-X\	.
.	.	8F\	.	.	.	.
.	.	8G\J	.	.	.	.
=96	=96	=96	=96	=96	=96	=96
.	.	8A-\L	4e-/	.	4cc\	.
.	.	8c\	.	.	.	.
.	.	8B-\J	8r	.	8r	.
=97	=97	=97	=97	=97	=97	=97
!	!	!	!	!LO:DY:rj	!	!LO:DY:rj:t=fo&colon;
8r	8r	4A-\	4cc\	f	8aa-\L	f
8r	8r	.	.	.	8ff\	.
8B-/	8f\	8B-\	8a-\	.	8dd\J	.
!	!LO:LB:g=original	!	!	!	!	!
=98	=98	=98	=98	=98	=98	=98
4.E-/	4.e-\	8E-/L	4g/	.	4ee-\	.
.	.	8GG/	.	.	.	.
.	.	8BB-/J	8e-/	.	8gg\	.
=99	=99	=99	=99	=99	=99	=99
*tremolo	*	*	*	*	*	*
8E-/L	8e-\L	8E-/L	8g\L	.	8ee-\L	.
8E-/	8e-\	8BB-/	8ee-\	.	8gg\	.
8E-/J	8e-\J	8GG/J	8ee-\J	.	8gg\J	.
*Xtremolo	*	*	*	*	*	*
=100	=100	=100	=100	=100	=100	=100
4E-/	4e-\	4EE-/	4ee-\	.	4gg\	.
!LO:TX:b:t=50	!LO:TX:b:t=50	!LO:TX:b:t=50	!LO:TX:b:t=50	!	!LO:TX:b:t=50	!
8r	8r	8r	8r	.	8r	.
==	==	==	==	==	==	==
*-	*-	*-	*-	*-	*-	*-
!!!system-decoration: s1,s2,s3,s4,s5
!!!ENC: Krzysztof Stępień
!!!END: 2021-06-16
!!!EED: Leszek Kubiak
!!!EEV: 2021-06-21
!!!YEC: Copyright 2022 Narodowy Instytut Fryderyka Chopina (https://polishscores.org)
!!!YEM: Licence CC BY 4.0 (https://creativecommons.org/licenses/by/4.0)
